X:1
T:The False Knight Upon the Road
M:4/4
L:1/4
K:C
e/2-d/2| c- A G E| G3/2- A/2 G G/2G/2| c2 dc/2-d/2| e d d| e/2d/2|\
 c A G E| G3/2- A/2- G G/2G/2| c2 d-c/2-d/2| e c c| f| e- d e f| g2 f3/2 e/2|\
 d- a a g| a- d|d/2-f/2-e/2-d/2| c A G E| G3/2- A/2- G G/2G/2| c2 d-c/2-d/2|\
 e c c||
